src/assets/duotone/Wallet3.svg

<svg width="24" height="24" viewBox="0 0 24 24"  xmlns="http://www.w3.org/2000/svg">
<path d="M15 6.15002H6C3.79 6.15002 2 7.94002 2 10.15V6.53998C2 4.49998 3.65 2.84998 5.69 2.84998H11.31C13.35 2.84998 15 4.11002 15 6.15002Z" />
<path opacity="0.4" d="M17.48 12.2C16.98 12.69 16.74 13.43 16.94 14.18C17.19 15.11 18.11 15.7 19.07 15.7H20V17.15C20 19.36 18.21 21.15 16 21.15H6C3.79 21.15 2 19.36 2 17.15V10.15C2 7.94002 3.79 6.15002 6 6.15002H16C18.2 6.15002 20 7.95002 20 10.15V11.6H18.92C18.36 11.6 17.85 11.82 17.48 12.2Z" />
<path d="M22.0002 12.62V14.68C22.0002 15.24 21.5402 15.7 20.9702 15.7H19.0402C17.9602 15.7 16.9702 14.91 16.8802 13.83C16.8202 13.2 17.0602 12.61 17.4802 12.2C17.8502 11.82 18.3602 11.6 18.9202 11.6H20.9702C21.5402 11.6 22.0002 12.06 22.0002 12.62Z" />
<path d="M13 11.9H7C6.59 11.9 6.25 11.56 6.25 11.15C6.25 10.74 6.59 10.4 7 10.4H13C13.41 10.4 13.75 10.74 13.75 11.15C13.75 11.56 13.41 11.9 13 11.9Z" />
</svg>

<?xml version="1.0" encoding="UTF-8"?>
<svg width="24" height="24" viewBox="0 0 24 24" xmlns="http://www.w3.org/2000/svg">
 <path d="m15 6.15h-9c-2.21 0-4 1.79-4 4v-3.61c0-2.04 1.65-3.69 3.69-3.69h5.62c2.04 0 3.69 1.26 3.69 3.3z"/>
 <path d="m17.48 12.2c-0.5 0.49-0.74 1.23-0.54 1.98 0.25 0.93 1.17 1.52 2.13 1.52h0.93v1.45c0 2.21-1.79 4-4 4h-10c-2.21 0-4-1.79-4-4v-7c0-2.21 1.79-4 4-4h10c2.2 0 4 1.8 4 4v1.45h-1.08c-0.56 0-1.07 0.22-1.44 0.6z" opacity=".4"/>
 <path d="m22 12.62v2.06c0 0.56-0.46 1.02-1.03 1.02h-1.93c-1.08 0-2.07-0.79-2.16-1.87-0.06-0.63 0.18-1.22 0.6-1.63 0.37-0.38 0.88-0.6 1.44-0.6h2.05c0.57 0 1.03 0.46 1.03 1.02z"/>
 <path d="m13 11.9h-6c-0.41 0-0.75-0.34-0.75-0.75s0.34-0.75 0.75-0.75h6c0.41 0 0.75 0.34 0.75 0.75s-0.34 0.75-0.75 0.75z"/>
</svg>
